logos/centos.svg

<?xml version="1.0" encoding="UTF-8" standalone="no"?>
<svg width="512px" height="144px" viewBox="0 0 512 144" version="1.1" xmlns="http://www.w3.org/2000/svg" xmlns:xlink="http://www.w3.org/1999/xlink" preserveAspectRatio="xMidYMid">
	<g>
		<path d="M511.220522,84.5458713 C511.220522,90.5691072 509.313248,95.6431969 505.4977,99.7681404 C501.682152,103.893084 496.83462,105.955057 490.955103,105.955057 L444.511813,105.857248 L444.511813,93.4834152 L482.792047,93.4834152 C485.357037,93.4834152 487.514823,92.8606316 489.265404,91.6170604 C491.267493,90.1768733 492.268538,88.2127096 492.268538,85.7245692 C492.268538,79.8979493 488.327236,76.9846394 480.446628,76.9846394 L461.118378,76.9846394 C455.55225,76.9846394 450.67278,75.1841559 446.481965,71.5831891 C442.29115,67.9822222 440.196242,63.3991735 440.196242,57.8340429 C440.196242,51.6800624 442.229271,46.7047797 446.294331,42.9071969 C450.422269,39.0447407 455.8337,37.1125146 462.526628,37.1125146 L506.904951,37.1125146 L506.904951,48.8974971 L467.780366,48.8974971 C466.028788,48.8974971 464.246269,49.682963 462.432811,51.2548928 C460.681232,52.7599532 459.804943,54.5604366 459.804943,56.655345 C459.804943,59.0127407 460.649294,61.0098402 462.337996,62.6466433 C464.089575,64.217575 466.185481,65.0030409 468.624717,65.0030409 L489.923119,65.0030409 C496.55317,65.0030409 501.745029,66.8035244 505.4977,70.4044912 C509.313248,73.9395867 511.220522,78.6543782 511.220522,84.5458713 L511.220522,84.5458713 Z M419.418823,70.9943392 C419.418823,64.2505107 417.885817,58.8819961 414.820803,54.8877973 C411.380522,50.4364912 406.283478,48.2098402 399.527673,48.2098402 C392.897622,48.2098402 387.893396,50.6001715 384.515992,55.3788382 C381.701489,59.373037 380.294238,64.5778713 380.294238,70.9943392 C380.294238,78.3918908 381.420039,83.8592125 383.671641,87.394308 C386.799532,92.3047173 392.585232,94.759922 401.028741,94.759922 C408.159813,94.759922 413.163041,92.3695906 416.040421,87.590924 C418.292023,83.8592125 419.418823,78.3270175 419.418823,70.9943392 L419.418823,70.9943392 Z M436.119205,71.3865731 C436.119205,84.7424873 432.585107,94.3018168 425.516912,100.062565 C419.762152,104.711485 411.380522,107.035945 400.372023,107.035945 C388.174846,107.035945 379.168437,104.351189 373.350799,98.9826745 C366.971259,93.0901832 363.780491,83.6296608 363.780491,70.6011072 C363.780491,59.9299493 366.626932,51.6151891 372.318815,45.6568265 C378.510721,39.1754854 387.768639,35.9348148 400.090573,35.9348148 C413.664062,35.9348148 423.233372,39.0447407 428.800499,45.2635945 C433.679969,50.7638519 436.119205,59.470846 436.119205,71.3865731 L436.119205,71.3865731 Z M359.554745,65.5928889 L346.888483,65.5928889 L346.888483,88.6708148 C346.888483,90.7657232 347.57614,92.5013333 348.952452,93.8756491 C350.516398,95.250963 352.580366,95.9376218 355.144359,95.9376218 L358.991844,95.9376218 L358.991844,105.857248 L346.888483,105.857248 C343.260569,105.857248 340.163618,104.481934 337.599626,101.732304 C336.098558,100.095501 335.128452,98.2950175 334.691306,96.3308538 C334.253162,94.3666901 334.034589,92.04223 334.034589,89.3584717 L334.034589,65.5928889 L325.777715,65.5928889 L325.777715,54.9866043 L334.034589,54.9866043 L334.034589,37.1125146 L346.888483,37.1125146 L346.888483,54.9866043 L359.554745,54.9866043 L359.554745,65.5928889 L359.554745,65.5928889 Z M322.097903,105.857248 L309.056374,105.857248 L309.056374,72.368655 C309.056374,71.5173177 308.868741,70.7647875 308.493474,70.1100663 C308.118207,69.3894737 307.586246,68.7028148 306.898589,68.0480936 C305.648031,66.9352671 304.208842,66.3783548 302.583018,66.3783548 L289.82294,66.3783548 L289.82294,105.857248 L276.781411,105.857248 L276.781411,54.9866043 L301.738667,54.9866043 C306.178994,54.9866043 309.400702,55.2480936 311.401793,55.7720702 C314.529684,56.5575361 317.031797,58.2931462 318.908133,60.9769045 C321.034979,64.1197661 322.097903,67.5570526 322.097903,71.2887641 L322.097903,105.857248 L322.097903,105.857248 Z M268.5954,106.151673 L245.702113,106.151673 C240.134986,106.151673 235.287454,103.663532 231.159517,98.6882495 C227.093458,93.6470955 225.060429,87.8524133 225.060429,81.3052008 C225.060429,74.1691384 227.281092,68.0151579 231.722417,62.8432593 C236.225622,57.6054893 241.229848,54.9866043 246.734097,54.9866043 L268.501583,54.9866043 L268.501583,65.4940819 L252.550737,65.4940819 C250.549645,65.4940819 248.829006,65.6906979 247.390815,66.0839298 C246.014503,66.4112904 244.733006,67.0989474 243.544327,68.1459025 C241.354604,70.1100663 240.260741,72.7618869 240.260741,76.1003665 L268.407766,76.1003665 L268.407766,86.7066511 L240.354558,86.7066511 C240.354558,88.2785809 240.510253,89.619961 240.823641,90.7327875 C241.198908,91.7807407 241.917505,92.8606316 242.981427,93.9744561 C244.044351,95.0214113 245.295906,95.7420039 246.734097,96.1342378 C248.235166,96.4615984 250.049622,96.6252788 252.17547,96.6252788 L268.5954,96.6252788 L268.5954,106.151673 L268.5954,106.151673 Z M220.310706,105.857248 L191.319329,105.857248 C188.379072,105.857248 185.470752,105.43108 182.593372,104.580741 C177.027244,102.813193 172.616858,98.7531228 169.364211,92.4025263 C166.424951,86.6417778 164.954823,79.930885 164.954823,72.270846 C164.954823,64.8722963 166.268257,58.3250838 168.895127,52.6292086 C171.772507,46.3444834 175.869505,42.0558596 181.186121,39.7643353 C185.315057,37.9967875 189.536811,37.1135127 193.852382,37.1135127 L220.123072,37.1135127 L220.123072,50.2728109 L192.820398,50.2728109 C188.379072,50.2728109 185.158363,52.7928889 183.156273,57.8340429 C181.593326,61.7623704 180.810854,66.9023314 180.810854,73.2529279 C180.810854,78.6214425 181.811899,83.1715556 183.81299,86.9032671 C186.12747,91.2896998 189.380117,93.4834152 193.570932,93.4834152 L220.310706,93.3846082 L220.310706,105.857248 L220.310706,105.857248 Z" fill="#000000"></path>
		<path d="M60.671501,66.7356569 L65.8623626,71.897575 L60.671501,77.0584951 L24.1318674,77.0584951 L24.1318674,94.2549084 L1.84838986,71.897575 L24.1318674,49.9155088 L24.1318674,66.7356569 L60.671501,66.7356569 L60.671501,66.7356569 Z" fill="#932279"></path>
		<path d="M77.2171852,60.671501 L72.0562651,65.8623626 L66.895345,60.671501 L66.895345,24.1318674 L49.6979337,24.1318674 L72.0562651,1.84838986 L94.0373333,24.1318674 L77.2171852,24.1318674 L77.2171852,60.671501 L77.2171852,60.671501 Z" fill="#EFA724"></path>
		<path d="M83.2823392,77.2171852 L78.0904795,72.0562651 L83.2823392,66.895345 L119.820975,66.895345 L119.820975,49.6979337 L142.10545,72.0562651 L119.820975,94.0373333 L119.820975,77.2171852 L83.2823392,77.2171852 L83.2823392,77.2171852 Z" fill="#262577"></path>
		<path d="M66.7356569,83.2823392 L71.896577,78.0904795 L77.0584951,83.2823392 L77.0584951,119.821973 L94.2549084,119.821973 L71.896577,142.10545 L49.9165068,119.821973 L66.7356569,119.821973 L66.7356569,83.2823392 L66.7356569,83.2823392 Z" fill="#9CCD2A"></path>
		<path d="M22.822425,22.822425 L67.2197115,22.822425 L67.2197115,67.2207096 L22.822425,67.2207096 L22.822425,22.822425 Z" fill="#9CCD2A"></path>
		<path d="M21.2365224,21.2365224 L68.805614,21.2365224 L68.805614,68.805614 L21.2365224,68.805614 L21.2365224,21.2365224 Z M24.4073294,65.634807 L65.633809,65.634807 L65.633809,24.4083275 L24.4073294,24.4083275 L24.4073294,65.634807 Z" fill="#FFFFFF"></path>
		<path d="M76.7331306,22.822425 L121.130417,22.822425 L121.130417,67.2207096 L76.7331306,67.2207096 L76.7331306,22.822425 Z" fill="#932279"></path>
		<path d="M75.1482261,21.2365224 L122.717318,21.2365224 L122.717318,68.805614 L75.1482261,68.805614 L75.1482261,21.2365224 Z M78.3190331,65.634807 L119.545513,65.634807 L119.545513,24.4083275 L78.3190331,24.4083275 L78.3190331,65.634807 Z" fill="#FFFFFF"></path>
		<path d="M76.7331306,76.7331306 L121.130417,76.7331306 L121.130417,121.131415 L76.7331306,121.131415 L76.7331306,76.7331306 Z" fill="#EFA724"></path>
		<path d="M75.1482261,75.1482261 L122.717318,75.1482261 L122.717318,122.718316 L75.1482261,122.718316 L75.1482261,75.1482261 Z M78.3190331,119.545513 L119.545513,119.545513 L119.545513,78.3190331 L78.3190331,78.3190331 L78.3190331,119.545513 Z" fill="#FFFFFF"></path>
		<path d="M22.822425,76.7331306 L67.2197115,76.7331306 L67.2197115,121.131415 L22.822425,121.131415 L22.822425,76.7331306 Z" fill="#262577"></path>
		<path d="M21.2365224,75.1482261 L68.805614,75.1482261 L68.805614,122.718316 L21.2365224,122.718316 L21.2365224,75.1482261 Z M24.4073294,119.545513 L65.633809,119.545513 L65.633809,78.3190331 L24.4073294,78.3190331 L24.4073294,119.545513 Z" fill="#FFFFFF"></path>
		<path d="M33.8558752,105.613723 L0.218573099,71.9764211 L33.8548772,38.340117 L67.4921793,71.9764211 L33.8558752,105.613723 L33.8558752,105.613723 Z M4.70381287,71.9764211 L33.8558752,101.128483 L63.0069396,71.9764211 L33.8548772,42.8253567 L4.70381287,71.9764211 L4.70381287,71.9764211 Z" fill="#FFFFFF"></path>
		<path d="M71.9764211,67.4921793 L38.340117,33.8558752 L71.9764211,0.218573099 L105.612725,33.8558752 L71.9764211,67.4921793 L71.9764211,67.4921793 Z M42.8253567,33.8558752 L71.9764211,63.0069396 L101.128483,33.8558752 L71.9764211,4.70381287 L42.8253567,33.8558752 L42.8253567,33.8558752 Z" fill="#FFFFFF"></path>
		<path d="M110.097965,105.613723 L76.4616608,71.9764211 L110.097965,38.340117 L143.734269,71.9764211 L110.097965,105.613723 L110.097965,105.613723 Z M80.9459025,71.9764211 L110.097965,101.128483 L139.249029,71.9764211 L110.097965,42.8253567 L80.9459025,71.9764211 L80.9459025,71.9764211 Z" fill="#FFFFFF"></path>
		<path d="M71.9764211,143.734269 L38.340117,110.097965 L71.9764211,76.4616608 L105.612725,110.097965 L71.9764211,143.734269 L71.9764211,143.734269 Z M42.8253567,110.097965 L71.9764211,139.249029 L101.128483,110.097965 L71.9764211,80.9469006 L42.8253567,110.097965 L42.8253567,110.097965 Z" fill="#FFFFFF"></path>
	</g>
</svg>

<svg preserveAspectRatio="xMidYMid" viewBox="0 0 512 144" xmlns="http://www.w3.org/2000/svg">
  <path d="M511.22 84.546c0 6.023-1.907 11.097-5.722 15.222-3.816 4.125-8.663 6.187-14.543 6.187l-46.443-.098V93.483h38.28c2.565 0 4.723-.622 6.473-1.866 2.002-1.44 3.004-3.404 3.004-5.892 0-5.827-3.942-8.74-11.822-8.74h-19.329c-5.566 0-10.445-1.8-14.636-5.402-4.19-3.6-6.286-8.184-6.286-13.749 0-6.154 2.033-11.13 6.098-14.927 4.128-3.862 9.54-5.794 16.233-5.794h44.378v11.784H467.78c-1.751 0-3.534.786-5.347 2.358-1.752 1.505-2.628 3.305-2.628 5.4 0 2.358.844 4.355 2.533 5.992 1.752 1.57 3.847 2.356 6.287 2.356h21.298c6.63 0 11.822 1.8 15.575 5.401 3.815 3.536 5.723 8.25 5.723 14.142Zm-91.8-13.552c0-6.743-1.533-12.112-4.598-16.106-3.44-4.452-8.538-6.678-15.293-6.678-6.63 0-11.635 2.39-15.012 7.169-2.815 3.994-4.222 9.199-4.222 15.615 0 7.398 1.126 12.865 3.378 16.4 3.128 4.91 8.913 7.366 17.357 7.366 7.13 0 12.134-2.39 15.011-7.17 2.252-3.73 3.379-9.263 3.379-16.596Zm16.7.393c0 13.355-3.534 22.915-10.602 28.676-5.755 4.648-14.136 6.973-25.145 6.973-12.197 0-21.204-2.685-27.021-8.053-6.38-5.893-9.57-15.353-9.57-28.382 0-10.671 2.846-18.986 8.538-24.944 6.192-6.482 15.45-9.722 27.772-9.722 13.573 0 23.142 3.11 28.71 9.329 4.879 5.5 7.318 14.207 7.318 26.123Zm-76.564-5.794h-12.667V88.67c0 2.095.688 3.83 2.064 5.205 1.564 1.375 3.628 2.062 6.192 2.062h3.848v9.92h-12.104c-3.627 0-6.724-1.376-9.288-4.126-1.501-1.636-2.472-3.437-2.909-5.401-.438-1.964-.656-4.289-.656-6.973V65.593h-8.257V54.987h8.257V37.113h12.853v17.874h12.667v10.606Zm-37.457 40.264h-13.042V72.37c0-.852-.187-1.604-.563-2.259-.375-.72-.907-1.407-1.594-2.062-1.251-1.113-2.69-1.67-4.316-1.67h-12.76v39.48H276.78V54.986h24.958c4.44 0 7.662.261 9.663.785 3.128.786 5.63 2.521 7.506 5.205 2.127 3.143 3.19 6.58 3.19 10.312v34.568Zm-53.503.295h-22.893c-5.567 0-10.415-2.488-14.542-7.464-4.067-5.04-6.1-10.836-6.1-17.383 0-7.136 2.221-13.29 6.662-18.462 4.504-5.238 9.508-7.856 15.012-7.856h21.768v10.507H252.55c-2.001 0-3.722.197-5.16.59-1.376.327-2.658 1.015-3.847 2.062-2.19 1.964-3.283 4.616-3.283 7.954h28.147v10.607h-28.053c0 1.572.155 2.913.469 4.026.375 1.048 1.094 2.128 2.157 3.241a8.422 8.422 0 0 0 3.753 2.16c1.501.328 3.316.491 5.441.491h16.42v9.527Zm-48.284-.295H191.32a30.64 30.64 0 0 1-8.726-1.276c-5.566-1.768-9.976-5.828-13.229-12.178-2.939-5.761-4.41-12.472-4.41-20.132 0-7.399 1.314-13.946 3.941-19.642 2.878-6.285 6.975-10.573 12.291-12.865 4.13-1.767 8.35-2.65 12.666-2.65h26.271v13.159H192.82c-4.44 0-7.662 2.52-9.664 7.561-1.563 3.928-2.345 9.068-2.345 15.419 0 5.368 1 9.919 3.002 13.65 2.314 4.387 5.567 6.58 9.758 6.58l26.74-.098v12.472Z"/>
  <path fill="#932279" d="m60.672 66.736 5.19 5.162-5.19 5.16h-36.54v17.197L1.848 71.898l22.284-21.982v16.82h36.54Z"/>
  <path fill="#EFA724" d="m77.217 60.672-5.16 5.19-5.162-5.19v-36.54H49.698L72.056 1.848l21.981 22.284h-16.82v36.54Z"/>
  <path fill="#262577" d="m83.282 77.217-5.192-5.16 5.192-5.162h36.539V49.698l22.284 22.358-22.284 21.981v-16.82H83.282Z"/>
  <path fill="#9CCD2A" d="m66.736 83.282 5.16-5.192 5.162 5.192v36.54h17.197l-22.358 22.283-21.98-22.283h16.819v-36.54Z"/>
  <path fill="#9CCD2A" d="M22.822 22.822H67.22v44.399H22.822V22.822Z"/>
  <path fill="#FFF" d="M21.237 21.237h47.569v47.569h-47.57v-47.57Zm3.17 44.398h41.227V24.408H24.407v41.227Z"/>
  <path fill="#932279" d="M76.733 22.822h44.397v44.399H76.733V22.822Z"/>
  <path fill="#FFF" d="M75.148 21.237h47.57v47.569h-47.57v-47.57Zm3.171 44.398h41.227V24.408H78.319v41.227Z"/>
  <path fill="#EFA724" d="M76.733 76.733h44.397v44.398H76.733V76.733Z"/>
  <path fill="#FFF" d="M75.148 75.148h47.57v47.57h-47.57v-47.57Zm3.171 44.398h41.227V78.319H78.319v41.227Z"/>
  <path fill="#262577" d="M22.822 76.733H67.22v44.398H22.822V76.733Z"/>
  <path fill="#FFF" d="M21.237 75.148h47.569v47.57h-47.57v-47.57Zm3.17 44.398h41.227V78.319H24.407v41.227Z"/>
  <path fill="#FFF" d="M33.856 105.614.219 71.976 33.855 38.34l33.637 33.636-33.636 33.638ZM4.704 71.976l29.152 29.152 29.15-29.152-29.151-29.15-29.151 29.15Z"/>
  <path fill="#FFF" d="M71.976 67.492 38.34 33.856 71.976.219l33.637 33.637-33.637 33.636Zm-29.15-33.636 29.15 29.15 29.152-29.15L71.976 4.704l-29.15 29.152Z"/>
  <path fill="#FFF" d="M110.098 105.614 76.462 71.976l33.636-33.636 33.636 33.636-33.636 33.638ZM80.946 71.976l29.152 29.152 29.151-29.152-29.151-29.15-29.152 29.15Z"/>
  <path fill="#FFF" d="M71.976 143.734 38.34 110.098l33.636-33.636 33.637 33.636-33.637 33.636Zm-29.15-33.636 29.15 29.151 29.152-29.151-29.152-29.151-29.15 29.151Z"/>
</svg>
